X: 24
T:Star above the Garter
M:6/8
L:1/8
S:Dermy Diamond, Belfast (fiddle)
R:Slide
D:Private tape - Milltown Malbay 1985
N:As played
Z:Bernie Stocks
K:G
d2B {d}BAG | ABA ABA | GEE c2B | {d}BAG ABc |d2B {d}BAG | ABA ABA | GEE EDC | D3 DFA ::\
d2e f2d | (3gage (3dedB | G2B c2B | {d}BAG ABc | d2e fga | (3gage (3dedB | G2B c2E | D3 D3 :|
<end>
<start>
